humanity-icon-theme/Humanity/places/16/folder-saved-search.svg

<?xml version="1.0" encoding="UTF-8" standalone="no"?>
<!-- Created with Inkscape (http://www.inkscape.org/) -->

<svg
   xmlns:svg="http://www.w3.org/2000/svg"
   xmlns="http://www.w3.org/2000/svg"
   xmlns:xlink="http://www.w3.org/1999/xlink"
   version="1.0"
   width="16"
   height="16"
   id="svg2733">
  <defs
     id="defs2735">
    <radialGradient
       cx="605.71429"
       cy="486.64789"
       r="117.14286"
       fx="605.71429"
       fy="486.64789"
       id="radialGradient2677"
       xlink:href="#linearGradient5060"
       gradientUnits="userSpaceOnUse"
       gradientTransform="matrix(-2.774389,0,0,1.969706,112.7623,-872.8854)" />
    <linearGradient
       id="linearGradient5060">
      <stop
         id="stop5062"
         style="stop-color:black;stop-opacity:1"
         offset="0" />
      <stop
         id="stop5064"
         style="stop-color:black;stop-opacity:0"
         offset="1" />
    </linearGradient>
    <radialGradient
       cx="605.71429"
       cy="486.64789"
       r="117.14286"
       fx="605.71429"
       fy="486.64789"
       id="radialGradient2675"
       xlink:href="#linearGradient5060"
       gradientUnits="userSpaceOnUse"
       gradientTransform="matrix(2.774389,0,0,1.969706,-1891.633,-872.8854)" />
    <linearGradient
       id="linearGradient5048">
      <stop
         id="stop5050"
         style="stop-color:black;stop-opacity:0"
         offset="0" />
      <stop
         id="stop5056"
         style="stop-color:black;stop-opacity:1"
         offset="0.5" />
      <stop
         id="stop5052"
         style="stop-color:black;stop-opacity:0"
         offset="1" />
    </linearGradient>
    <linearGradient
       x1="302.85715"
       y1="366.64789"
       x2="302.85715"
       y2="609.50507"
       id="linearGradient2673"
       xlink:href="#linearGradient5048"
       gradientUnits="userSpaceOnUse"
       gradientTransform="matrix(2.774389,0,0,1.969706,-1892.179,-872.8854)" />
    <linearGradient
       id="linearGradient3390-178-986-453">
      <stop
         id="stop3624"
         style="stop-color:#bb5e12;stop-opacity:1"
         offset="0" />
      <stop
         id="stop3626"
         style="stop-color:#cd8033;stop-opacity:1"
         offset="1" />
    </linearGradient>
    <linearGradient
       x1="10.318256"
       y1="14.992862"
       x2="4.1760364"
       y2="4.0514131"
       id="linearGradient2692"
       xlink:href="#linearGradient3390-178-986-453"
       gradientUnits="userSpaceOnUse"
       gradientTransform="matrix(1.0083043,0,0,1.0006232,-8.2398426e-4,-0.0066205)" />
    <linearGradient
       id="linearGradient7012-661-145-733-759-865-745-661-970-94">
      <stop
         id="stop3618"
         style="stop-color:#edd563;stop-opacity:1"
         offset="0" />
      <stop
         id="stop3620"
         style="stop-color:#e08223;stop-opacity:1"
         offset="1" />
    </linearGradient>
    <linearGradient
       x1="126.69791"
       y1="58.583481"
       x2="169.22964"
       y2="238.3999"
       id="linearGradient2690"
       xlink:href="#linearGradient7012-661-145-733-759-865-745-661-970-94"
       gradientUnits="userSpaceOnUse"
       gradientTransform="matrix(0.05489342,0.01385132,0.00257263,0.05248166,-0.7128009,-0.2674105)" />
    <linearGradient
       id="linearGradient8265-821-176-38-919-66-249">
      <stop
         id="stop2687"
         style="stop-color:white;stop-opacity:0.27450982"
         offset="0" />
      <stop
         id="stop2689"
         style="stop-color:white;stop-opacity:0.07843138"
         offset="1" />
    </linearGradient>
    <linearGradient
       x1="18.03083"
       y1="16.407909"
       x2="20.054544"
       y2="24.627615"
       id="linearGradient2687"
       xlink:href="#linearGradient8265-821-176-38-919-66-249"
       gradientUnits="userSpaceOnUse"
       gradientTransform="matrix(0.2966887,0,0,0.3520695,1.8805021,2.1186294)" />
  </defs>
  <g
     id="layer1">
    <g
       transform="matrix(0.3639508,0,0,0.3445682,-0.6448509,-0.3854516)"
       id="layer6">
      <g
         transform="matrix(0.02165152,0,0,0.01485743,43.0076,42.68539)"
         id="g2488"
         style="display:inline">
        <rect
           width="1339.6335"
           height="478.35718"
           x="-1559.2523"
           y="-150.69685"
           id="rect2490"
           style="opacity:0.40206185;fill:url(#linearGradient2673);fill-opacity:1;fill-rule:nonzero;stroke:none;stroke-width:1;marker:none;visibility:visible;display:inline;overflow:visible" />
        <path
           d="m -219.61876,-150.68038 c 0,0 0,478.33079 0,478.33079 142.874166,0.90045 345.40022,-107.16966 345.40014,-239.196175 0,-132.026537 -159.436816,-239.134595 -345.40014,-239.134615 z"
           id="path2492"
           style="opacity:0.40206185;fill:url(#radialGradient2675);fill-opacity:1;fill-rule:nonzero;stroke:none;stroke-width:1;marker:none;visibility:visible;display:inline;overflow:visible" />
        <path
           d="m -1559.2523,-150.68038 c 0,0 0,478.33079 0,478.33079 -142.8742,0.90045 -345.4002,-107.16966 -345.4002,-239.196175 0,-132.026537 159.4368,-239.134595 345.4002,-239.134615 z"
           id="path2494"
           style="opacity:0.40206185;fill:url(#radialGradient2677);fill-opacity:1;fill-rule:nonzero;stroke:none;stroke-width:1;marker:none;visibility:visible;display:inline;overflow:visible" />
      </g>
    </g>
    <path
       d="m 0.60149736,1.5214532 c -0.056258,0 -0.104488,0.060345 -0.104488,0.122673 0,4.6045693 0.003374,8.6511918 -6.5534e-4,12.8572538 C 5.2026801,14.47741 9.9114628,14.45312 14.61887,14.43586 c -0.417129,0 -1.112329,-0.07009 -1.102384,-0.940487 0.0035,-3.5970295 0.02296,-7.4083529 0.01078,-10.9808559 l -6.0519488,0 c -0.4774881,0 -1.0962577,-0.9930629 -1.5260835,-0.9930629 l -5.34773334,0 z"
       id="rect2196"
       style="fill:white;fill-opacity:1;stroke:#a8a8a8;stroke-width:0.97899997;stroke-linecap:round;stroke-linejoin:round;stroke-miterlimit:4;stroke-opacity:1;stroke-dasharray:none;display:inline" />
    <path
       d="m 2.5253881,4.5240135 c 0.656364,0 12.4800419,0.031393 12.9890009,0.031393 0,0.615413 -0.02468,9.9580745 -0.05407,9.9580745 -4.558843,0.01775 -11.6593999,-0.01389 -12.9868139,-0.01389 0,-1.161471 0.05188,-7.5853285 0.05188,-9.9755725 z"
       id="rect3086"
       style="fill:url(#linearGradient2690);fill-opacity:1;stroke:url(#linearGradient2692);stroke-width:0.95339239;stroke-linecap:round;stroke-linejoin:round;stroke-miterlimit:4;stroke-opacity:1;stroke-dasharray:none;display:inline" />
    <path
       d="m 2.8354689,4.0000008 c -0.4565886,0 -0.834437,0.4483788 -0.834437,0.9901955 l 0,5.6331117 c 0.00175,0.100774 0.044034,0.21567 0.1112582,0.286057 0.067223,0.07039 0.1531492,0.100083 0.2503311,0.08802 0.00309,9.4e-5 0.00618,9.4e-5 0.00927,0 L 15.722884,8.4888869 c 0.154804,-0.028972 0.275982,-0.1881213 0.278146,-0.3740738 l 0,-3.1246168 c 0,-0.5418167 -0.377849,-0.9901955 -0.834437,-0.9901955 l -12.3311241,0 z"
       id="path2509"
       style="fill:url(#linearGradient2687);fill-opacity:1;fill-rule:evenodd;stroke:none" />
    <path
       d="m 3.4989691,13.999999 0,-8.499999 11.4999999,0"
       id="path2406"
       style="opacity:0.35;fill:none;stroke:white;stroke-width:1px;stroke-linecap:butt;stroke-linejoin:miter;stroke-opacity:1" />
  </g>
  <g
     transform="translate(23.316838,2.0527036)"
     id="g2509">
    <path
       d="m -11.665385,9.0166474 4.041049,3.8873056 -0.560145,0.78573 -4.249703,-4.2050246 0.768799,-0.468011 z"
       id="path11112"
       style="fill:#1a1a1a;fill-opacity:1;fill-rule:evenodd;stroke:#1a1a1a;stroke-width:0.49333107;stroke-linecap:round;stroke-linejoin:round;stroke-miterlimit:4;stroke-opacity:1;stroke-dasharray:none" />
    <path
       d="m 247.90924,110.29199 c 0,1.46698 -2.17896,2.6562 -4.86685,2.6562 -2.68789,0 -4.86685,-1.18922 -4.86685,-2.6562 0,-1.46698 2.17896,-2.6562 4.86685,-2.6562 2.68789,0 4.86685,1.18922 4.86685,2.6562 l 0,0 z"
       transform="matrix(0.08969046,-0.115328,0.1149645,0.08594318,-42.327779,31.892002)"
       id="path13082"
       style="fill:#1a1a1a;fill-opacity:1;stroke:none" />
    <path
       d="m 25.897786,18.478292 c 7.12e-4,4.589164 -3.719341,8.309794 -8.308505,8.309794 -4.589164,0 -8.309217,-3.72063 -8.308505,-8.309794 -7.12e-4,-4.589164 3.719341,-8.309794 8.308505,-8.309794 4.589164,0 8.309217,3.72063 8.308505,8.309794 z"
       transform="matrix(0.3418431,0,0,0.344734,-19.859398,0.6821159)"
       id="path4452"
       style="opacity:0.4;fill:white;fill-opacity:1;fill-rule:evenodd;stroke:none;stroke-width:0.98458618;marker:none;visibility:visible" />
    <path
       d="m -13.909062,4.19201 c -1.744295,0 -3.160495,1.3497491 -3.160494,3.0121494 0,1.662401 1.416199,3.0121486 3.160494,3.0121486 1.744294,0 3.160494,-1.3497476 3.160494,-3.0121486 0,-1.6624002 -1.416199,-3.0121494 -3.160494,-3.0121494 z m 0.03766,0.1976162 c 1.561154,0 2.830251,1.2069069 2.830251,2.6947658 0,1.4878594 -1.269097,2.6947654 -2.830251,2.6947654 -1.561155,10e-7 -2.827353,-1.206906 -2.827353,-2.6947654 0,-1.4878589 1.266198,-2.6947658 2.827353,-2.6947658 z"
       id="path2298"
       style="fill:#333;fill-opacity:1;stroke:#1a1a1a;stroke-width:0.49333107;stroke-linecap:round;stroke-linejoin:round;stroke-miterlimit:4;stroke-opacity:1;stroke-dasharray:none" />
  </g>
</svg>

<?xml version="1.0" encoding="UTF-8" standalone="no"?>
<!-- Created with Inkscape (http://www.inkscape.org/) -->
<svg
   xmlns:svg="http://www.w3.org/2000/svg"
   xmlns="http://www.w3.org/2000/svg"
   xmlns:xlink="http://www.w3.org/1999/xlink"
   version="1.0"
   width="16"
   height="16"
   id="svg3272">
  <defs
     id="defs3274">
    <linearGradient
       x1="18.03083"
       y1="16.407909"
       x2="20.054544"
       y2="24.627615"
       id="linearGradient2687"
       xlink:href="#linearGradient8265-821-176-38-919-66-249"
       gradientUnits="userSpaceOnUse"
       gradientTransform="matrix(0.2966887,0,0,0.3520695,1.8805021,2.1186294)" />
    <linearGradient
       x1="10.318256"
       y1="14.992862"
       x2="4.1760364"
       y2="4.0514131"
       id="linearGradient2692"
       xlink:href="#linearGradient3390-178-986-453"
       gradientUnits="userSpaceOnUse"
       gradientTransform="matrix(1.0083043,0,0,1.0006232,-8.2398426e-4,-6.6205e-3)" />
    <linearGradient
       x1="126.69791"
       y1="58.583481"
       x2="169.22964"
       y2="238.3999"
       id="linearGradient2690"
       xlink:href="#linearGradient7012-661-145-733-759-865-745-661-970-94"
       gradientUnits="userSpaceOnUse"
       gradientTransform="matrix(5.489342e-2,1.385132e-2,2.57263e-3,5.248166e-2,-0.7128009,-0.2674105)" />
    <radialGradient
       cx="605.71429"
       cy="486.64789"
       r="117.14286"
       fx="605.71429"
       fy="486.64789"
       id="radialGradient2677"
       xlink:href="#linearGradient5060"
       gradientUnits="userSpaceOnUse"
       gradientTransform="matrix(-2.774389,0,0,1.969706,112.7623,-872.8854)" />
    <radialGradient
       cx="605.71429"
       cy="486.64789"
       r="117.14286"
       fx="605.71429"
       fy="486.64789"
       id="radialGradient2675"
       xlink:href="#linearGradient5060"
       gradientUnits="userSpaceOnUse"
       gradientTransform="matrix(2.774389,0,0,1.969706,-1891.633,-872.8854)" />
    <linearGradient
       x1="302.85715"
       y1="366.64789"
       x2="302.85715"
       y2="609.50507"
       id="linearGradient2673"
       xlink:href="#linearGradient5048"
       gradientUnits="userSpaceOnUse"
       gradientTransform="matrix(2.774389,0,0,1.969706,-1892.179,-872.8854)" />
    <linearGradient
       x1="18.03083"
       y1="16.407909"
       x2="20.054544"
       y2="24.627615"
       id="linearGradient3404"
       xlink:href="#linearGradient8265-821-176-38-919-66-249"
       gradientUnits="userSpaceOnUse" />
    <linearGradient
       id="linearGradient3752">
      <stop
         id="stop3754"
         style="stop-color:#ffffff;stop-opacity:1"
         offset="0" />
      <stop
         id="stop3760"
         style="stop-color:#ffffff;stop-opacity:1"
         offset="0.84754151" />
      <stop
         id="stop3756"
         style="stop-color:#ffffff;stop-opacity:0"
         offset="1" />
    </linearGradient>
    <radialGradient
       cx="4.02005"
       cy="5.5926585"
       r="10.273108"
       fx="4.02005"
       fy="5.5926585"
       id="radialGradient3402"
       xlink:href="#linearGradient3752"
       gradientUnits="userSpaceOnUse"
       gradientTransform="matrix(-1.680222e-2,1.3942814,-1.79662,-2.165073e-2,-5.3658054,-19.339419)" />
    <linearGradient
       x1="9.7045717"
       y1="20.882006"
       x2="9.7045717"
       y2="4.3030405"
       id="linearGradient3400"
       xlink:href="#linearGradient3390-178-986-453"
       gradientUnits="userSpaceOnUse"
       gradientTransform="matrix(0.9945751,0,0,0.9945751,-19.857339,-19.77827)" />
    <radialGradient
       cx="7.8185525"
       cy="8.5608768"
       r="11.268134"
       fx="7.8185525"
       fy="8.5608768"
       id="radialGradient3398"
       xlink:href="#linearGradient7012-661-145-733-759-865-745-661-970-94"
       gradientUnits="userSpaceOnUse"
       gradientTransform="matrix(1.6899516,0,0,1.0436086,-24.967043,-20.53429)" />
    <linearGradient
       id="linearGradient5157">
      <stop
         id="stop5159"
         style="stop-color:#c1c1c1;stop-opacity:1"
         offset="0" />
      <stop
         id="stop5161"
         style="stop-color:#909090;stop-opacity:1"
         offset="1" />
    </linearGradient>
    <linearGradient
       x1="9.8763561"
       y1="2.6014566"
       x2="9.8763561"
       y2="23.061668"
       id="linearGradient3396"
       xlink:href="#linearGradient5157"
       gradientUnits="userSpaceOnUse"
       gradientTransform="translate(-19.518072,-21.496043)" />
    <linearGradient
       id="linearGradient11111">
      <stop
         id="stop11113"
         style="stop-color:#ffffff;stop-opacity:1"
         offset="0" />
      <stop
         id="stop11115"
         style="stop-color:#cdcdcd;stop-opacity:1"
         offset="0.91013825" />
      <stop
         id="stop11117"
         style="stop-color:#a1a1a1;stop-opacity:1"
         offset="1" />
    </linearGradient>
    <linearGradient
       x1="-28.531403"
       y1="17.955765"
       x2="-28.531403"
       y2="37.502914"
       id="linearGradient3394"
       xlink:href="#linearGradient11111"
       gradientUnits="userSpaceOnUse"
       gradientTransform="translate(14.859932,-35.997365)" />
    <radialGradient
       cx="605.71429"
       cy="486.64789"
       r="117.14286"
       fx="605.71429"
       fy="486.64789"
       id="radialGradient3392"
       xlink:href="#linearGradient5060"
       gradientUnits="userSpaceOnUse"
       gradientTransform="matrix(-2.774389,0,0,1.969706,112.7623,-872.8854)" />
    <linearGradient
       id="linearGradient5060">
      <stop
         id="stop5062"
         style="stop-color:#000000;stop-opacity:1"
         offset="0" />
      <stop
         id="stop5064"
         style="stop-color:#000000;stop-opacity:0"
         offset="1" />
    </linearGradient>
    <radialGradient
       cx="605.71429"
       cy="486.64789"
       r="117.14286"
       fx="605.71429"
       fy="486.64789"
       id="radialGradient3390"
       xlink:href="#linearGradient5060"
       gradientUnits="userSpaceOnUse"
       gradientTransform="matrix(2.774389,0,0,1.969706,-1891.633,-872.8854)" />
    <linearGradient
       id="linearGradient5048">
      <stop
         id="stop5050"
         style="stop-color:#000000;stop-opacity:0"
         offset="0" />
      <stop
         id="stop5056"
         style="stop-color:#000000;stop-opacity:1"
         offset="0.5" />
      <stop
         id="stop5052"
         style="stop-color:#000000;stop-opacity:0"
         offset="1" />
    </linearGradient>
    <linearGradient
       x1="302.85715"
       y1="366.64789"
       x2="302.85715"
       y2="609.50507"
       id="linearGradient3388"
       xlink:href="#linearGradient5048"
       gradientUnits="userSpaceOnUse"
       gradientTransform="matrix(2.774389,0,0,1.969706,-1892.179,-872.8854)" />
    <linearGradient
       id="linearGradient3390-178-986-453">
      <stop
         id="stop3624"
         style="stop-color:#bb2b12;stop-opacity:1"
         offset="0" />
      <stop
         id="stop3626"
         style="stop-color:#cd7233;stop-opacity:1"
         offset="1" />
    </linearGradient>
    <linearGradient
       id="linearGradient7012-661-145-733-759-865-745-661-970-94">
      <stop
         id="stop3618"
         style="stop-color:#edb763;stop-opacity:1"
         offset="0" />
      <stop
         id="stop3270"
         style="stop-color:#de7f32;stop-opacity:1"
         offset="0.5" />
      <stop
         id="stop3620"
         style="stop-color:#d24413;stop-opacity:1"
         offset="1" />
    </linearGradient>
    <linearGradient
       id="linearGradient8265-821-176-38-919-66-249">
      <stop
         id="stop2687"
         style="stop-color:#ffffff;stop-opacity:0.27450982"
         offset="0" />
      <stop
         id="stop2689"
         style="stop-color:#ffffff;stop-opacity:0.07843138"
         offset="1" />
    </linearGradient>
  </defs>
  <g
     id="layer1">
    <g
       transform="matrix(0.3639508,0,0,0.3445682,-0.6448509,-0.3854516)"
       id="layer6">
      <g
         transform="matrix(2.165152e-2,0,0,1.485743e-2,43.0076,42.68539)"
         id="g2488"
         style="display:inline">
        <rect
           width="1339.6335"
           height="478.35718"
           x="-1559.2523"
           y="-150.69685"
           id="rect2490"
           style="opacity:0.40206185;fill:url(#linearGradient2673);fill-opacity:1;fill-rule:nonzero;stroke:none;stroke-width:1;marker:none;visibility:visible;display:inline;overflow:visible" />
        <path
           d="M -219.61876,-150.68038 C -219.61876,-150.68038 -219.61876,327.65041 -219.61876,327.65041 C -76.744594,328.55086 125.78146,220.48075 125.78138,88.454235 C 125.78138,-43.572302 -33.655436,-150.68036 -219.61876,-150.68038 L -219.61876,-150.68038 z"
           id="path2492"
           style="opacity:0.40206185;fill:url(#radialGradient2675);fill-opacity:1;fill-rule:nonzero;stroke:none;stroke-width:1;marker:none;visibility:visible;display:inline;overflow:visible" />
        <path
           d="M -1559.2523,-150.68038 C -1559.2523,-150.68038 -1559.2523,327.65041 -1559.2523,327.65041 C -1702.1265,328.55086 -1904.6525,220.48075 -1904.6525,88.454235 C -1904.6525,-43.572302 -1745.2157,-150.68036 -1559.2523,-150.68038 L -1559.2523,-150.68038 z"
           id="path2494"
           style="opacity:0.40206185;fill:url(#radialGradient2677);fill-opacity:1;fill-rule:nonzero;stroke:none;stroke-width:1;marker:none;visibility:visible;display:inline;overflow:visible" />
      </g>
    </g>
    <path
       d="M 0.60149736,1.5214532 C 0.54523936,1.5214532 0.49700936,1.5817982 0.49700936,1.6441262 C 0.49700936,6.2486955 0.50038336,10.295318 0.49635402,14.50138 C 5.2026801,14.47741 9.9114628,14.45312 14.61887,14.43586 C 14.201741,14.43586 13.506541,14.36577 13.516486,13.495373 C 13.519986,9.8983435 13.539446,6.0870201 13.527266,2.5145171 L 7.4753172,2.5145171 C 6.9978291,2.5145171 6.3790595,1.5214542 5.9492337,1.5214542 L 0.60150036,1.5214542 L 0.60149736,1.5214532 z"
       id="rect2196"
       style="fill:#ffffff;fill-opacity:1;stroke:#a8a8a8;stroke-width:0.97899997;stroke-linecap:round;stroke-linejoin:round;stroke-miterlimit:4;stroke-dasharray:none;stroke-opacity:1;display:inline" />
    <path
       d="M 2.5253881,4.5240135 C 3.1817521,4.5240135 15.00543,4.5554065 15.514389,4.5554065 C 15.514389,5.1708195 15.489709,14.513481 15.460319,14.513481 C 10.901476,14.531231 3.8009191,14.499591 2.4735051,14.499591 C 2.4735051,13.33812 2.5253851,6.9142625 2.5253851,4.5240185 L 2.5253881,4.5240135 z"
       id="rect3086"
       style="fill:url(#linearGradient2690);fill-opacity:1;stroke:url(#linearGradient2692);stroke-width:0.95339239;stroke-linecap:round;stroke-linejoin:round;stroke-miterlimit:4;stroke-dasharray:none;stroke-opacity:1;display:inline" />
    <path
       d="M 2.8354689,4.0000008 C 2.3788803,4.0000008 2.0010319,4.4483796 2.0010319,4.9901963 L 2.0010319,10.623308 C 2.0027819,10.724082 2.0450659,10.838978 2.1122901,10.909365 C 2.1795131,10.979755 2.2654393,11.009448 2.3626212,10.997385 C 2.3657112,10.997479 2.3688012,10.997479 2.3718912,10.997385 L 15.722884,8.4888869 C 15.877688,8.4599149 15.998866,8.3007656 16.00103,8.1148131 L 16.00103,4.9901963 C 16.00103,4.4483796 15.623181,4.0000008 15.166593,4.0000008 L 2.8354689,4.0000008 L 2.8354689,4.0000008 z"
       id="path2509"
       style="fill:url(#linearGradient2687);fill-opacity:1;fill-rule:evenodd;stroke:none" />
    <path
       d="M 3.4989691,13.999999 L 3.4989691,5.5 L 14.998969,5.5"
       id="path2406"
       style="opacity:0.35;fill:none;stroke:#ffffff;stroke-width:1px;stroke-linecap:butt;stroke-linejoin:miter;stroke-opacity:1" />
  </g>
  <g
     transform="translate(23.316838,2.0527036)"
     id="g2509">
    <path
       d="M -11.665385,9.0166474 L -7.624336,12.903953 L -8.184481,13.689683 L -12.434184,9.4846584 L -11.665385,9.0166474 L -11.665385,9.0166474 z"
       id="path11112"
       style="fill:#1a1a1a;fill-opacity:1;fill-rule:evenodd;stroke:#1a1a1a;stroke-width:0.49333107;stroke-linecap:round;stroke-linejoin:round;stroke-miterlimit:4;stroke-dasharray:none;stroke-opacity:1" />
    <path
       d="M 247.90924,110.29199 C 247.90924,111.75897 245.73028,112.94819 243.04239,112.94819 C 240.3545,112.94819 238.17554,111.75897 238.17554,110.29199 C 238.17554,108.82501 240.3545,107.63579 243.04239,107.63579 C 245.73028,107.63579 247.90924,108.82501 247.90924,110.29199 L 247.90924,110.29199 z"
       transform="matrix(8.969046e-2,-0.115328,0.1149645,8.594318e-2,-42.327779,31.892002)"
       id="path13082"
       style="fill:#1a1a1a;fill-opacity:1;stroke:none" />
    <path
       d="M 25.897786,18.478292 C 25.898498,23.067456 22.178445,26.788086 17.589281,26.788086 C 13.000117,26.788086 9.280064,23.067456 9.280776,18.478292 C 9.280064,13.889128 13.000117,10.168498 17.589281,10.168498 C 22.178445,10.168498 25.898498,13.889128 25.897786,18.478292 z"
       transform="matrix(0.3418431,0,0,0.344734,-19.859398,0.6821159)"
       id="path4452"
       style="opacity:0.4;fill:#ffffff;fill-opacity:1;fill-rule:evenodd;stroke:none;stroke-width:0.98458618;marker:none;visibility:visible" />
    <path
       d="M -13.909062,4.19201 C -15.653357,4.19201 -17.069557,5.5417591 -17.069556,7.2041594 C -17.069556,8.8665604 -15.653357,10.216308 -13.909062,10.216308 C -12.164768,10.216308 -10.748568,8.8665604 -10.748568,7.2041594 C -10.748568,5.5417592 -12.164767,4.19201 -13.909062,4.19201 L -13.909062,4.19201 z M -13.871402,4.3896262 C -12.310248,4.3896262 -11.041151,5.5965331 -11.041151,7.084392 C -11.041151,8.5722514 -12.310248,9.7791574 -13.871402,9.7791574 C -15.432557,9.7791584 -16.698755,8.5722514 -16.698755,7.084392 C -16.698755,5.5965331 -15.432557,4.3896262 -13.871402,4.3896262 L -13.871402,4.3896262 z"
       id="path2298"
       style="fill:#333333;fill-opacity:1;stroke:#1a1a1a;stroke-width:0.49333107;stroke-linecap:round;stroke-linejoin:round;stroke-miterlimit:4;stroke-dasharray:none;stroke-opacity:1" />
  </g>
</svg>
